svgs/sharp-solid/forward-fast.svg

<svg xmlns="http://www.w3.org/2000/svg" viewBox="0 0 512 512"><!--! Font Awesome Pro 6.6.0 by @fontawesome - https://fontawesome.com License - https://fontawesome.com/license (Commercial License) Copyright 2024 Fonticons, Inc. --><path d="M448 96l0-32 64 0 0 32 0 320 0 32-64 0 0-32 0-136L224 448l0-168L0 448 0 64 224 232l0-168L448 232l0-136z"/></svg>

<svg xmlns="http://www.w3.org/2000/svg" viewBox="0 0 512 512"><!--! Font Awesome Pro 6.5.2 by @fontawesome - https://fontawesome.com License - https://fontawesome.com/license (Commercial License) Copyright 2024 Fonticons, Inc. --><path d="M448 96V64h64V96 416v32H448V416 280L224 448V280L0 448V64L224 232V64L448 232V96z"/></svg>
